icons/angularjs-line.svg

<svg viewBox="0 0 24 24" fill="currentColor" xmlns="http://www.w3.org/2000/svg">
    <path d="M17.5235 16.6507L18.0126 16.3795L19.1315 6.66941L12.0002 4.12362L4.86892 6.66941L5.98781 16.3795L6.46166 16.6422L12.0002 4.21L17.5235 16.6507ZM16.4246 17.26H15.6263L14.4576 14.34H9.52286L8.35412 17.26H7.57582L12.0002 19.7131L16.4246 17.26ZM12.0002 2L21.3002 5.32L19.8817 17.63L12.0002 22L4.11867 17.63L2.7002 5.32L12.0002 2ZM13.6984 12.54L12.0002 8.45L10.302 12.54H13.6984Z"/>
</svg>

<svg xmlns="http://www.w3.org/2000/svg" viewBox="0 0 24 24">
    <g>
        <path fill="none" d="M0 0h24v24H0z"/>
        <path fill-rule="nonzero" d="M17.523 16.65l.49-.27 1.118-9.71L12 4.123 4.869 6.669l1.119 9.71.473.263L12 4.21l5.523 12.44zm-1.099.61h-.798l-1.169-2.92H9.523l-1.17 2.92h-.777L12 19.713l4.424-2.453zM12 2l9.3 3.32-1.418 12.31L12 22l-7.882-4.37L2.7 5.32 12 2zm1.698 10.54L12 8.45l-1.698 4.09h3.396z"/>
    </g>
</svg>
